src/assets/svg/icons/fa/nuevos/classic/thin/spade classic thin.svg

<svg xmlns="http://www.w3.org/2000/svg" viewBox="0 0 512 512"><path d="M233.5 9.74C245.5-3.247 266.4-3.247 279.4 9.74L472.2 209.5C528.1 267.5 525.1 363.4 463.2 417.3C407.3 464.3 325.4 455.3 275.4 404.3L264 391.7V496H344C348.4 496 352 499.6 352 504C352 508.4 348.4 512 344 512H168C163.6 512 160 508.4 160 504C160 499.6 163.6 496 168 496H248V392.2L236.5 404.3C186.5 455.3 103.6 464.3 49.7 417.3C-13.23 363.4-16.22 267.5 39.71 209.5L233.5 9.74zM460.7 220.6L268 20.97C261 14.06 250.6 14.76 245.2 20.59L244.1 20.88L51.22 220.6C1.603 272.1 4.288 357.3 60.11 405.2L60.2 405.3C106.8 445.8 180.1 438.9 224.1 393.2L244.9 372.3C247.9 369.1 252.2 367.3 256.6 367.4C261.1 367.4 265.3 369.3 268.3 372.6L287.1 393.4C331.8 438.8 404.1 445.1 452.8 405.2C507.6 357.3 510.3 272 460.7 220.6L460.7 220.6z"/></svg>

<svg xmlns="http://www.w3.org/2000/svg" viewBox="0 0 512 512"><!--! Font Awesome Pro 6.4.0 by @fontawesome - https://fontawesome.com License - https://fontawesome.com/license (Commercial License) Copyright 2023 Fonticons, Inc. --><path d="M460.7 220.6l0 0L268 21c-7-6.9-17.4-6.2-22.8-.4l0 0-.3 .3L51.2 220.6l0 0C1.6 272.1 4.3 357.3 60.1 405.2l0 0 .1 .1c46.6 40.6 119.9 33.7 164.8-12l19.9-20.9c3.1-3.2 7.3-5 11.8-5s8.7 2 11.7 5.3l18.8 20.7c44.7 45.4 117 52.6 165.7 11.8c54.8-47.9 57.5-133.1 7.9-184.5zM233.5 9.7c12-13 33-13 45.9 0L472.2 209.5c55.9 57.9 52.9 153.8-9 207.8c-55.9 47-137.8 38-187.8-13l-8.2-9.1-3.2-3.5V496h80c4.4 0 8 3.6 8 8s-3.6 8-8 8H168c-4.4 0-8-3.6-8-8s3.6-8 8-8h80V392.2l-2.6 2.7-8.9 9.4c-49.9 51-132.8 59.9-186.8 13c-62.9-53.9-65.9-149.8-10-207.8L233.5 9.7z"/></svg>
